svg/misc/table-question.svg

<svg width="576" height="512" viewBox="0 0 576 512" version="1.1" xmlns="http://www.w3.org/2000/svg"><path fill="currentColor" d="M184,81l184,92l0,34.636l-16,8.032l0,112.332c0,13.255 -10.745,24 -24,24c-13.255,0 -24,-10.745 -24,-24l0,-88.237l-96,48.19l0,120.047c0,13.255 -10.745,24 -24,24c-13.255,0 -24,-10.745 -24,-24l0,-120.047l-96,-48.19l0,88.237c0,13.255 -10.745,24 -24,24c-13.255,0 -24,-10.745 -24,-24l0,-112.332l-16,-8.032l0,-34.636l184,-92Zm288,303c13.255,0 24,-10.745 24,-24c0,-13.255 -10.745,-24 -24,-24c-13.255,0 -24,10.745 -24,24c0,13.255 10.745,24 24,24Zm-40,-184c0,-22.091 17.909,-40 40,-40c22.091,0 40,17.909 40,40c0,22.091 -17.909,40 -40,40c-13.255,0 -24,10.745 -24,24l0,32c0,13.255 10.745,24 24,24c13.255,0 24,-10.745 24,-24l0,-11.312c36.936,-10.447 64,-44.407 64,-84.688c0,-48.601 -39.399,-88 -88,-88c-48.601,0 -88,39.399 -88,88c0,13.255 10.745,24 24,24c13.255,0 24,-10.745 24,-24Z"></path></svg>

<svg width="576" height="512" viewBox="0 0 576 512" fill="none" xmlns="http://www.w3.org/2000/svg">
<path d="M184 81L368 173V207.636L352 215.668V328C352 341.255 341.255 352 328 352C314.745 352 304 341.255 304 328V239.763L208 287.953V408C208 421.255 197.255 432 184 432C170.745 432 160 421.255 160 408V287.953L64 239.763V328C64 341.255 53.2548 352 40 352C26.7452 352 16 341.255 16 328V215.668L0 207.636V173L184 81Z" fill="black"/>
<path d="M432 200C432 177.909 449.909 160 472 160C494.091 160 512 177.909 512 200C512 222.091 494.091 240 472 240C458.745 240 448 250.745 448 264V296C448 309.255 458.745 320 472 320C485.255 320 496 309.255 496 296V284.688C532.936 274.241 560 240.281 560 200C560 151.399 520.601 112 472 112C423.399 112 384 151.399 384 200C384 213.255 394.745 224 408 224C421.255 224 432 213.255 432 200Z" fill="black"/>
<path d="M472 384C485.255 384 496 373.255 496 360C496 346.745 485.255 336 472 336C458.745 336 448 346.745 448 360C448 373.255 458.745 384 472 384Z" fill="black"/>
</svg>
